img/vk.svg

<svg width="25" height="15" viewBox="0 0 25 15" fill="none" xmlns="http://www.w3.org/2000/svg">
<path d="M13.2435 14.8524C5.12122 14.8524 0.191263 9.27287 0 0H4.11344C4.24209 6.81092 7.37178 9.70174 9.77071 10.2911V0H13.7143V5.87675C16.0284 5.62198 18.4487 2.94857 19.2644 0H23.142C22.521 3.62796 19.8854 6.30137 18.0216 7.40539C19.8854 8.29709 22.8855 10.6308 24.0425 14.8524H19.779C18.8784 12.0304 16.6708 9.84441 13.7143 9.54717V14.8524H13.2435Z" fill="#2C75B9" fill-opacity="0.3"/>
</svg>

<svg width="25" height="15" fill="none" xmlns="http://www.w3.org/2000/svg"><path d="M13.243 14.852C5.121 14.852.191 9.272 0 0h4.113c.13 6.81 3.259 9.702 5.658 10.291V0h3.943v5.877c2.314-.255 4.735-2.928 5.55-5.877h3.878c-.621 3.628-3.257 6.301-5.12 7.405 1.863.892 4.864 3.226 6.02 7.447H19.78c-.9-2.822-3.108-5.008-6.065-5.305v5.305h-.47Z" fill="#2C75B9" fill-opacity=".3"/></svg>
